X: 112
T: Hora Chassidit
C: Chassidic
O: Israel
S: Panorama Israeli Folk Dances
M: 2/4
L: 1/8
Q: 1/4=120
K: Am
%%MIDI program 71
  zAGF|EFED |CDCB,  |A,4    |z4   |
|:EAce|^dece|^dece  |^dcBA  |
  EAce|^dece|e4     |e3z    :|
K: A
|:A2c2|c3d  |ed/c/cA|ed/c/cA|
  Bcde|cABG |[1A2ag |fedc   |BA2z :|[2A4|



